X: 51
T:Fy. Nay, Prithee John
K:Gm
M:4/4
D2|G2 G2 B2 g2|B4 G2 AB|c2 F2 f2 c2|A4 F4|G2 G2 B2 g2|B3 A G2 AB|cBAG ^F2 A2| G2 D4:|
|:Bc| d2 ef gfed| B2 g2 G2 AB| c2 de fedc|A2 f2 F2 Bc|d2 ef g2 cB| cBAG ^F2 A2| G2 D4:|

